X: 26286
T: Melvin Wave, The
R: reel
M: 4/4
K: Dmajor
|:DFAF EAGE|FDFA d2de|fdAd faaf|abaf geeg|
f2ec dAFA|defe dcBA|GFEF GABd|cAGE EDD2:|
|:dBAB df (3fff|abaf gfec|df (3fff dfgb|afdf efge|
fa (3aaa faba|afdf edBc|dBAF A2 (3Bcd|cAGE EDD2:|

